Newaita-dark/actions/24/format-border-set-diagonal-bl-tr.svg

<svg height="24" viewBox="0 0 24 24" width="24" xmlns="http://www.w3.org/2000/svg"><g fill="#e0e0e0"><path d="m4.960938 4.15625h13.890624c.550782 0 .992188.445312.992188.992188v13.890624c0 .550782-.441406.992188-.992188.992188h-13.890624c-.546876 0-.992188-.441406-.992188-.992188v-13.890624c0-.546876.445312-.992188.992188-.992188zm0 0" fill-opacity=".392157"/><path d="m2.976562 11.597656h17.863282v.992188h-17.863282zm0 0"/><path d="m12.402344 3.164062v17.863282h-.992188v-17.863282zm0 0"/></g><path d="m20.679688 4.027344-16.839844 16.839844-.703125-.703126 16.839843-16.839843zm0 0" fill="#7e57c2"/><path d="m3.96875 2.171875c-1.097656 0-1.984375.886719-1.984375 1.984375v15.875c0 1.101562.886719 1.988281 1.984375 1.988281h15.875c1.101562 0 1.988281-.886719 1.988281-1.988281v-15.875c0-1.097656-.886719-1.984375-1.988281-1.984375zm.992188 1.984375h13.890624c.550782 0 .992188.441406.992188.992188v13.890624c0 .550782-.441406.992188-.992188.992188h-13.890624c-.550782 0-.992188-.441406-.992188-.992188v-13.890624c0-.550782.441406-.992188.992188-.992188zm0 0" fill="#e0e0e0"/></svg>

<?xml version="1.0" encoding="UTF-8"?>
<svg xmlns="http://www.w3.org/2000/svg" xmlns:xlink="http://www.w3.org/1999/xlink" width="24px" height="24px" viewBox="0 0 24 24" version="1.1">
<g id="surface1">
<path style=" stroke:none;fill-rule:nonzero;fill:rgb(87.843138%,87.843138%,87.843138%);fill-opacity:0.392157;" d="M 4.960938 4.15625 L 18.851562 4.15625 C 19.402344 4.15625 19.84375 4.601562 19.84375 5.148438 L 19.84375 19.039062 C 19.84375 19.589844 19.402344 20.03125 18.851562 20.03125 L 4.960938 20.03125 C 4.414062 20.03125 3.96875 19.589844 3.96875 19.039062 L 3.96875 5.148438 C 3.96875 4.601562 4.414062 4.15625 4.960938 4.15625 Z M 4.960938 4.15625 "/>
<path style=" stroke:none;fill-rule:nonzero;fill:rgb(87.843138%,87.843138%,87.843138%);fill-opacity:1;" d="M 2.976562 11.597656 L 20.839844 11.597656 L 20.839844 12.589844 L 2.976562 12.589844 Z M 2.976562 11.597656 "/>
<path style=" stroke:none;fill-rule:nonzero;fill:rgb(87.843138%,87.843138%,87.843138%);fill-opacity:1;" d="M 12.402344 3.164062 L 12.402344 21.027344 L 11.410156 21.027344 L 11.410156 3.164062 Z M 12.402344 3.164062 "/>
<path style=" stroke:none;fill-rule:nonzero;fill:rgb(49.411765%,34.117648%,76.078433%);fill-opacity:1;" d="M 20.679688 4.027344 L 3.839844 20.867188 L 3.136719 20.164062 L 19.976562 3.324219 Z M 20.679688 4.027344 "/>
<path style=" stroke:none;fill-rule:nonzero;fill:rgb(87.843138%,87.843138%,87.843138%);fill-opacity:1;" d="M 3.96875 2.171875 C 2.871094 2.171875 1.984375 3.058594 1.984375 4.15625 L 1.984375 20.03125 C 1.984375 21.132812 2.871094 22.019531 3.96875 22.019531 L 19.84375 22.019531 C 20.945312 22.019531 21.832031 21.132812 21.832031 20.03125 L 21.832031 4.15625 C 21.832031 3.058594 20.945312 2.171875 19.84375 2.171875 Z M 4.960938 4.15625 L 18.851562 4.15625 C 19.402344 4.15625 19.84375 4.597656 19.84375 5.148438 L 19.84375 19.039062 C 19.84375 19.589844 19.402344 20.03125 18.851562 20.03125 L 4.960938 20.03125 C 4.410156 20.03125 3.96875 19.589844 3.96875 19.039062 L 3.96875 5.148438 C 3.96875 4.597656 4.410156 4.15625 4.960938 4.15625 Z M 4.960938 4.15625 "/>
</g>
</svg>
